src/assets/metronic/worbby/global/img/icon-profile-check.svg

<?xml version="1.0" encoding="UTF-8"?>
<svg width="75px" height="36px" viewBox="0 0 75 36" version="1.1" xmlns="http://www.w3.org/2000/svg" xmlns:xlink="http://www.w3.org/1999/xlink">
    <!-- Generator: Sketch 41.2 (35397) - http://www.bohemiancoding.com/sketch -->
    <title>icon-profile-check</title>
    <desc>Created with Sketch.</desc>
    <defs></defs>
    <g id="Desktop" stroke="none" stroke-width="1" fill="none" fill-rule="evenodd">
        <g id="Desktop-Home" transform="translate(-195.000000, -3122.000000)" fill="#FFFFFF">
            <g id="icon-endorsement-copy" transform="translate(195.000000, 3122.000000)">
                <g id="icon-profile-check">
                    <path d="M25.4109417,24.4075404 C25.2679604,24.3067364 23.9811294,23.2986965 23.9811294,20.965804 C23.9811294,20.8866008 23.9493558,20.8217983 23.933469,20.7497954 C25.3632813,19.2737369 25.9749232,17.5024667 26.189395,16.703235 C26.880471,14.1399334 26.7136595,10.0789724 26.6977727,9.84856324 C26.6103953,9.04213127 26.4753575,8.27170072 26.2926592,7.56607275 C28.858378,3.36830633 26.4038669,0.495392434 26.3006026,0.372987581 C25.9987534,0.0273738791 25.4665455,-0.0950309736 25.021715,0.0777758773 C24.9978848,0.0849761628 22.7896191,0.891408133 17.7455591,0.891408133 L16.4348979,0.884207848 C13.9962736,0.884207848 11.2637434,1.07141527 9.69889333,3.26750233 C8.20553384,5.36998568 8.96810039,8.95572784 9.23023264,9.97816837 C9.20640243,10.5541912 9.10313821,14.2911394 9.74655374,16.703235 C9.96896899,17.5168672 10.5964977,19.3169386 12.066027,20.8073977 C12.0580836,20.8577997 12.0342534,20.9082017 12.0342534,20.965804 C12.0342534,23.262695 10.7871393,24.2779353 10.6282713,24.4003401 C0.30184926,29.9301594 0,34.5023406 0,35.0063606 C0,35.546382 0.476604095,35.9783991 1.07235921,35.9927997 L1.09618942,35.9927997 C1.68400114,35.9927997 2.16854863,35.5607826 2.19237884,35.0279615 C2.19237884,34.99196 2.4862847,31.2046099 11.3272907,26.3372169 L12.0501402,28.4757017 C12.0819138,28.6053068 12.8921408,31.6726284 17.999748,31.6726284 C22.7101851,31.6726284 23.6951669,29.2101308 23.8460916,28.7205114 L24.6642619,26.3300166 C33.4258339,31.1398073 33.7991737,34.9127569 33.8071171,35.0207612 C33.8230039,35.5607826 34.3075514,36 34.9033066,36 C35.5070051,36 35.999496,35.5535823 35.999496,35.0063606 C36.0153828,34.5023406 35.7214769,29.9589605 25.4109417,24.4075404 L25.4109417,24.4075404 Z M11.5497059,4.34034487 C12.4234801,3.10909605 14.004217,2.87148663 16.4348979,2.87148663 L17.7455591,2.87868692 C21.4233541,2.87868692 23.7507707,2.47547093 24.9343376,2.18745951 C25.3076774,3.00109177 25.6730739,4.63555657 24.2353182,6.83164363 L24.2353182,6.83164363 L24.2353182,6.83164363 C23.9096388,7.24926019 22.1462036,7.90448616 19.4216169,7.96208845 C17.5152005,8.00529016 15.8470862,7.73167931 14.9574252,7.22765933 C14.7032363,7.08365362 14.3934437,7.04045191 14.1074812,7.10525448 C13.8215188,7.17005705 13.5673299,7.3428639 13.4243487,7.58047332 C13.4164053,7.59487389 12.7412161,8.581313 11.2478566,8.88372499 C10.977781,7.55887246 10.7791959,5.42038768 11.5497059,4.34034487 L11.5497059,4.34034487 Z M21.7331467,28.2092911 C21.7172599,28.2668934 21.2485992,29.6781494 18.0076914,29.6781494 C14.7350099,29.6781494 14.2186888,28.0868863 14.1789718,27.9644814 L13.0907258,24.7531541 C13.5037827,24.1627307 13.9009528,23.3490985 14.0915944,22.2834562 C15.13218,22.7946765 16.4031243,23.1330899 17.960031,23.1330899 C19.5487113,23.1330899 20.8355424,22.7874762 21.8920148,22.2546551 C22.0826564,23.3346979 22.4877699,24.1627307 22.9008268,24.7603544 L21.7331467,28.2092911 L21.7331467,28.2092911 Z M17.9759178,21.1458111 C13.6705941,21.1458111 12.2884422,17.711275 11.8912722,16.2352164 C11.4543851,14.6151522 11.4067247,12.1742554 11.4226115,10.8782041 C13.0033484,10.6405946 14.0757076,9.89896523 14.6873495,9.31574211 C15.9344636,9.7693601 17.6264081,9.99976923 19.4772207,9.94936723 C21.1215048,9.91336581 22.9961476,9.65415553 24.3862429,9.08533298 C24.4339033,9.38054468 24.4895071,9.68295667 24.5212807,9.98536866 C24.5212807,10.0213701 24.6801487,13.9383254 24.0685068,16.2352164 C23.6633933,17.7040747 22.273298,21.1458111 17.9759178,21.1458111 L17.9759178,21.1458111 Z" id="Shape"></path>
                    <path d="M68.4154755,14.9474635 L69.2962895,13.1723385 L70.6639356,10.4162575 C70.7093373,10.3228527 70.7054203,10.217346 70.6488215,10.1203138 C70.6003688,10.035743 70.5200232,9.98576886 70.4155171,9.97952683 L65.3716773,9.64884614 L65.2419832,7.68064919 L65.038291,4.58541737 C65.033779,4.49594647 64.9857832,4.41833837 64.8902273,4.3637395 C64.8133909,4.31962399 64.6861199,4.31576802 64.6045572,4.35615268 L60.0746974,6.60291427 L58.9757382,4.95940554 L57.2540916,2.38458818 C57.195904,2.29644189 57.1096079,2.25 57.0070254,2.25 C56.902907,2.25 56.8127104,2.29831841 56.7550091,2.38485299 L53.9523503,6.59395341 L52.1796022,5.7193172 L49.4182141,4.35690481 C49.3400191,4.31819423 49.197808,4.32217784 49.1217058,4.36495376 C49.0371566,4.41337566 48.9876203,4.49319173 48.9813318,4.59970653 L48.6620264,9.64850212 L46.6885391,9.7778865 L43.5989574,9.98039979 C43.5046797,9.98599147 43.4190194,10.0389988 43.3642373,10.1344972 C43.3134866,10.2216026 43.310246,10.3209639 43.3585399,10.4184501 L45.5950628,14.9498013 L43.9489412,16.045466 L41.3859551,17.7513985 C41.2982107,17.8098837 41.25,17.899845 41.25,18.0036007 C41.25,18.1073564 41.2982107,18.1973177 41.3847408,18.2549941 L45.5950628,21.0574001 L44.719871,22.8305998 L43.3570534,25.5917574 C43.3105572,25.6856093 43.3135621,25.7838933 43.3743955,25.8886381 C43.4213008,25.9720977 43.4998346,26.0209717 43.6129392,26.0276746 L48.6567791,26.3583553 L48.7864732,28.3265523 L48.9892638,31.4051344 C48.9953206,31.5098103 49.0460225,31.591458 49.138229,31.6434619 C49.2136295,31.686753 49.3445357,31.6907105 49.4281287,31.6489565 L53.9595531,29.413248 L55.0551459,31.0586357 L56.7555215,33.6123586 C56.8144216,33.6997997 56.9085651,33.75 57.0142282,33.75 C57.1183465,33.75 57.2085431,33.7016816 57.2662444,33.615147 L60.0700508,29.4043232 L61.8437457,30.2817174 L64.5871466,31.6388165 C64.6384101,31.6639203 64.6895748,31.6759852 64.7356406,31.6759852 C64.7823594,31.6759852 64.8418972,31.6599781 64.8851421,31.6350462 C64.972167,31.5852065 65.0256307,31.4991969 65.0330563,31.3878543 L65.3641683,26.3393571 L67.3379501,26.2145749 L70.403347,26.0208043 C70.5073466,26.0137549 70.6001143,25.9559645 70.6488215,25.8724847 C70.698808,25.7852369 70.7017185,25.68294 70.6565679,25.5908902 L68.4117434,21.0548445 L70.0542685,19.9569607 L72.6121175,18.2472789 C72.6994519,18.188473 72.7496451,18.094611 72.7499739,17.957936 C72.7511672,17.888139 72.7089035,17.8076814 72.6191344,17.7454345 L68.4154755,14.9474635 Z M73.8760067,15.8791758 C74.5890849,16.3616723 75.0140507,17.1538308 74.9996451,17.9963993 C74.9996451,18.8461692 74.5746793,19.6383277 73.8688039,20.1136227 L71.3046035,21.8275655 L72.6731374,24.5929186 C73.0476835,25.3562713 73.0260751,26.2492498 72.6011093,26.9909982 C72.1689407,27.7327465 71.4054428,28.2080416 70.5555112,28.2656531 L67.4799113,28.460092 L67.2782326,31.535107 C67.2206101,32.3992799 66.7452247,33.1626325 66.0033352,33.5875175 C65.6287891,33.8035607 65.1822149,33.9259852 64.7356406,33.9259852 C64.3394861,33.9259852 63.9505343,33.8323665 63.5975966,33.6595319 L60.8461232,32.2984597 L59.1390572,34.8621724 C58.6636717,35.575115 57.8713626,36 57.0142282,36 C56.1570938,36 55.3647846,35.575115 54.8893992,34.8693739 L53.1823332,32.3056611 L50.4236569,33.6667333 C49.6745646,34.0412082 48.7454021,34.0124025 48.0179183,33.5947189 C47.2760289,33.1770354 46.7934406,32.4064813 46.7430209,31.535107 L46.5413422,28.4744949 L43.4657423,28.2728546 C42.6086079,28.2224445 41.8379072,27.7471494 41.4129414,26.9909982 C40.9879756,26.2636527 40.9591644,25.3634727 41.3409133,24.5929186 L42.7022444,21.834767 L40.138044,20.1280256 C39.4249658,19.6527305 39,18.8605721 39,18.0036007 C39,17.1466293 39.4249658,16.3544709 40.138044,15.8791758 L42.7022444,14.1724345 L41.3409133,11.4142829 C40.9591644,10.6437287 40.9879756,9.74354871 41.4201442,9.00180036 C41.84511,8.26005201 42.6158107,7.78475695 43.4657423,7.73434687 L46.5413422,7.53270654 L46.7358181,4.45769154 C46.7862378,3.60072014 47.2616232,2.83736747 48.0035127,2.4124825 C48.7454021,1.99479896 49.6745646,1.97319464 50.4164541,2.34046809 L53.1751304,3.70154031 L54.8821964,1.13782757 C55.3575818,0.424884977 56.149891,0 57.0070254,0 C57.8641598,0 58.6564689,0.424884977 59.1318543,1.14502901 L60.8461232,3.70874175 L63.6047994,2.34046809 C64.3610945,1.9659932 65.2830542,1.99479896 66.010538,2.4124825 C66.7668331,2.84456891 67.2422186,3.61512302 67.2854354,4.47209442 L67.4871141,7.53270654 L70.562714,7.73434687 C71.4126456,7.78475695 72.1761435,8.26005201 72.6011093,9.00180036 C73.0260751,9.72914583 73.0620892,10.6293259 72.687543,11.39988 L71.3118063,14.1724345 L73.8760067,15.8791758 Z" id="Combined-Shape"></path>
                    <path d="M62.6078494,12.0080619 L55.4704318,20.7338925 L52.3921506,16.9630063 C51.9048075,16.3672063 51.1090194,16.3596645 50.6155073,16.9630063 C50.1281642,17.5588063 50.1281642,18.5316949 50.6155073,19.1350367 L54.5821102,23.9919381 C54.8165284,24.2785255 55.1373112,24.4444444 55.4704318,24.4444444 C55.8035524,24.4444444 56.1243352,24.2860672 56.3587535,23.9919381 L64.3844927,14.1800923 C64.8718358,13.5842923 64.8718358,12.6114037 64.3844927,12.0080619 C63.8971495,11.4047201 63.0951925,11.4047201 62.6078494,12.0080619 L62.6078494,12.0080619 Z" id="Shape"></path>
                </g>
            </g>
        </g>
    </g>
</svg>

<svg xmlns="http://www.w3.org/2000/svg" width="75" height="36"><g fill="#FFF" fill-rule="evenodd"><path d="M25.411 24.4075c-.143-.1008-1.43-1.1088-1.43-3.4417 0-.0792-.0316-.144-.0475-.216 1.4298-1.476 2.0414-3.2473 2.256-4.0466.691-2.5633.5242-6.6242.5083-6.8546-.0874-.8065-.2224-1.577-.405-2.2825 2.5656-4.1977.111-7.0706.0078-7.193-.3018-.3456-.834-.468-1.279-.2952-.0237.0072-2.232.8136-7.276.8136L16.435.8842c-2.4387 0-5.1713.1872-6.736 2.3833C8.2054 5.37 8.968 8.9557 9.23 9.9782c-.0238.576-.127 4.313.5164 6.725.2224.8137.85 2.6137 2.3194 4.1042-.008.0504-.0317.1008-.0317.1584 0 2.297-1.2472 3.312-1.406 3.4345C.3018 29.9303 0 34.5023 0 35.0063c0 .54.4766.972 1.0724.9865h.0238c.5878 0 1.0723-.432 1.0962-.9648 0-.036.294-3.8234 9.135-8.6908l.7227 2.1385c.032.1296.842 3.197 5.9497 3.197 4.7105 0 5.6955-2.4626 5.8464-2.9522l.8183-2.3905c8.7615 4.8098 9.135 8.5828 9.1428 8.6908.016.54.5006.9792 1.0963.9792.6037 0 1.0962-.4464 1.0962-.9936.016-.504-.278-5.0474-10.5886-10.599zM11.5496 4.3403c.8738-1.2312 2.4545-1.4688 4.8852-1.4688l1.3106.0072c3.6778 0 6.0052-.4032 7.1887-.6912.3734.8136.7388 2.448-.699 4.644-.3257.4178-2.089 1.073-4.8137 1.1306-1.9064.0433-3.5745-.2303-4.4642-.7343-.2542-.144-.564-.1872-.85-.1224-.286.0648-.54.2376-.683.4752-.008.0144-.6832 1.0008-2.1765 1.3032-.2702-1.3248-.4688-3.4633.3017-4.5434zm10.1834 23.869c-.0157.0576-.4844 1.4688-3.7253 1.4688-3.2727 0-3.789-1.591-3.8287-1.7135l-1.0883-3.2113c.413-.5905.8103-1.404 1.001-2.4697 1.0405.5112 2.3114.8496 3.8683.8496 1.5887 0 2.8755-.3455 3.932-.8783.1907 1.08.5958 1.908 1.0088 2.5057l-1.1677 3.449zm-3.757-7.0635c-4.3054 0-5.6876-3.4345-6.0847-4.9106-.437-1.62-.4846-4.061-.4687-5.357 1.5807-.2376 2.653-.9792 3.2647-1.5625 1.2472.4537 2.939.684 4.79.6337 1.6442-.036 3.5188-.2952 4.909-.864.0476.295.1032.5976.135.9 0 .036.1588 3.953-.4528 6.2498-.405 1.469-1.7952 4.9106-6.0926 4.9106zM68.4155 14.9475l.8808-1.7752 1.3676-2.756c.0453-.0934.0414-.199-.0152-.296-.0484-.0846-.1288-.1345-.2333-.1408l-5.0438-.3307-.1297-1.9682-.2037-3.0952c-.0045-.0895-.0525-.167-.148-.2217-.077-.044-.2042-.048-.2857-.0075l-4.53 2.2467-1.099-1.6436-1.7215-2.5748c-.058-.0882-.1444-.1346-.247-.1346-.104 0-.1943.0483-.252.135l-2.8026 4.209-1.7728-.8747-2.7614-1.3624c-.0782-.0388-.2204-.0348-.2965.008-.0845.0484-.134.1282-.1404.2347l-.3193 5.0488-1.9735.1294-3.0895.2024c-.0943.0056-.18.0586-.2348.154-.0507.0872-.054.1866-.0057.284L45.595 14.95l-1.646 1.0957-2.563 1.706c-.0878.0584-.136.1483-.136.252 0 .104.0482.1938.1347.2515l4.2104 2.8024-.875 1.7732-1.363 2.7612c-.0464.0938-.0434.192.0174.2968.047.0835.1254.1324.2385.139l5.0438.3308.1297 1.9682.2028 3.0785c.006.1048.0567.1865.149.2385.0753.0433.2062.0472.2898.0055l4.5316-2.2358 1.0955 1.6454 1.7005 2.5538c.059.0874.153.1376.2587.1376.104 0 .1943-.0483.252-.135l2.804-4.2107 1.7735.8774 2.7434 1.357c.0514.0252.1026.0373.1486.0373.0468 0 .1063-.016.1495-.041.0872-.0498.1406-.1358.148-.247l.3312-5.0486 1.9738-.1248 3.0653-.1938c.104-.007.1968-.0648.2455-.1483.05-.0873.053-.1896.0078-.2816l-2.245-4.5362 1.6427-1.0978 2.5578-1.7097c.0875-.0588.1376-.1527.138-.2894.0012-.07-.041-.1503-.131-.2126l-4.2035-2.798zm5.4605.9317c.713.4825 1.138 1.2746 1.1236 2.1172 0 .8498-.425 1.642-1.1308 2.1172l-2.5642 1.714 1.3685 2.7653c.3747.7633.353 1.6562-.072 2.398-.432.7417-1.1956 1.217-2.0455 1.2747L67.48 28.46l-.2018 3.075c-.0576.8643-.533 1.6276-1.275 2.0525-.3744.216-.821.3385-1.2676.3385-.396 0-.785-.0936-1.138-.2665l-2.7515-1.361-1.707 2.5637C58.6638 35.5752 57.8715 36 57.0143 36c-.857 0-1.6494-.425-2.1248-1.1306l-1.707-2.5637-2.7587 1.361c-.749.3745-1.6783.3457-2.4058-.072-.742-.4177-1.2246-1.1882-1.275-2.0596l-.2017-3.0605-3.0756-.2016c-.857-.0506-1.6278-.526-2.0528-1.282-.425-.7273-.4538-1.6275-.072-2.398l1.3612-2.7582-2.5642-1.7068C39.425 19.6527 39 18.8606 39 18.0036s.425-1.649 1.138-2.1244l2.5642-1.7068-1.3613-2.758c-.3818-.7707-.353-1.671.079-2.4126.425-.7417 1.1958-1.217 2.0457-1.2675l3.0756-.2016.1945-3.075c.0504-.857.5258-1.6203 1.2677-2.0452.742-.4177 1.671-.4393 2.413-.072l2.7586 1.361 1.7072-2.5637C55.3576.4248 56.15 0 57.007 0c.8572 0 1.6495.425 2.125 1.145l1.714 2.5637 2.7588-1.3682c.7563-.3745 1.6783-.3457 2.4057.072.7563.432 1.2317 1.2026 1.275 2.0596l.2016 3.0607 3.0757.2016c.85.0505 1.6134.5258 2.0384 1.2675.425.7273.461 1.6275.0865 2.398l-1.3757 2.7726 2.5642 1.7068z"/><path d="M62.6078 12.008l-7.1374 8.726-3.0782-3.771c-.4874-.5958-1.2832-.6033-1.7767 0-.4873.5958-.4873 1.5687 0 2.172l3.9666 4.857c.2345.2865.5553.4524.8884.4524.3332 0 .654-.1583.8884-.4525l8.0257-9.812c.4873-.5957.4873-1.5686 0-2.172-.4874-.6033-1.2893-.6033-1.7767 0z"/></g></svg>
